X: 42744
T: White Dragon, The
R: polka
M: 2/4
K: Edorian
|:Be d/c/B/A/|GE GE|F2 eB|eB e>c|
Be d/c/B/A/|GE GE|F2 B/c/B/A/|1 GE/D/ E>A:|2 GE/D/ E>B||
|:ce ^de|BG BG|ce ^de|B2 BA/B/|
ce ^de|BG BG|EF/G/ FD|1 E2 E>B:|2 E2 E>A||

